static/logos/airtable-wordmark-color.svg

<svg width="100" height="22" viewBox="0 0 100 22" fill="none" xmlns="http://www.w3.org/2000/svg">
<g clip-path="url(#clip0_1_3594)">
<path d="M39.8073 11.1691L38.0793 6.5699C38.0634 6.52846 38.0352 6.49282 37.9986 6.46769C37.962 6.44256 37.9186 6.4291 37.8742 6.4291C37.8298 6.4291 37.7864 6.44256 37.7498 6.46769C37.7131 6.49282 37.6851 6.52846 37.669 6.5699L35.9411 11.1699C35.9291 11.2025 35.9253 11.2376 35.9299 11.272C35.9346 11.3065 35.9476 11.3393 35.9678 11.3675C35.9881 11.3958 36.0149 11.4187 36.046 11.4343C36.0771 11.4498 36.1115 11.4575 36.1462 11.4566H39.6168C39.6685 11.4572 39.7184 11.4382 39.7567 11.4034C39.7948 11.3686 39.8184 11.3206 39.8227 11.2691C39.8259 11.2353 39.8206 11.2012 39.8073 11.1699V11.1691ZM40.6124 13.75H35.1359C35.0913 13.7503 35.0477 13.7642 35.0111 13.7898C34.9745 13.8154 34.9464 13.8516 34.9308 13.8934L33.847 16.7625C33.8314 16.8043 33.8035 16.8403 33.767 16.8659C33.7306 16.8916 33.6872 16.9055 33.6426 16.9059H31.2683C31.232 16.9064 31.1962 16.8979 31.1641 16.8811C31.132 16.8643 31.1045 16.8398 31.0842 16.8097C31.0639 16.7797 31.0514 16.745 31.0479 16.7089C31.0444 16.6728 31.0498 16.6364 31.0639 16.603L36.5256 3.19637C36.542 3.1558 36.5706 3.12139 36.6076 3.09803C36.6445 3.07467 36.6879 3.06354 36.7315 3.06622H39.0006C39.0437 3.06648 39.0859 3.07882 39.1223 3.10183C39.1587 3.12484 39.1878 3.15759 39.2065 3.19637L44.6676 16.603C44.6816 16.6365 44.6871 16.673 44.6835 16.7092C44.6799 16.7454 44.6673 16.7801 44.647 16.8102C44.6267 16.8403 44.5992 16.865 44.5669 16.8818C44.5347 16.8986 44.4988 16.9072 44.4624 16.9066H42.0918C42.047 16.9063 42.0034 16.8923 41.9668 16.8666C41.9302 16.8408 41.9023 16.8046 41.8867 16.7625L40.8028 13.8934C40.7925 13.8511 40.768 13.8137 40.7333 13.7875C40.6986 13.7612 40.6559 13.7477 40.6124 13.7493V13.75ZM45.7962 7.76621H47.8323C47.8898 7.76731 47.9446 7.79047 47.9855 7.83084C48.0264 7.87113 48.0503 7.92569 48.0521 7.98312V16.6912C48.0503 16.7486 48.0264 16.8029 47.9854 16.843C47.9445 16.8831 47.8896 16.9059 47.8323 16.9066H45.797C45.7395 16.9061 45.6845 16.8834 45.6434 16.8433C45.6023 16.8031 45.5783 16.7486 45.5764 16.6912V7.98312C45.5761 7.95422 45.5816 7.92562 45.5926 7.89893C45.6037 7.87223 45.62 7.84804 45.6406 7.82775C45.6612 7.80753 45.6856 7.79165 45.7125 7.78106C45.7394 7.77047 45.7681 7.7654 45.797 7.76621H45.7962ZM55.4624 9.88532C55.4607 9.9429 55.437 9.9976 55.396 10.0381C55.3551 10.0786 55.3002 10.1019 55.2426 10.103H55.1837C54.1734 10.103 53.4411 10.3324 52.9727 10.8089C52.5043 11.2853 52.2698 12.0633 52.2698 13.1574V16.6758C52.2679 16.7331 52.2442 16.7875 52.2034 16.8279C52.1627 16.8682 52.108 16.8914 52.0506 16.8927H50.0433C49.986 16.8914 49.9313 16.8682 49.8906 16.8279C49.8498 16.7875 49.8261 16.7331 49.8242 16.6758V7.98312C49.8261 7.92569 49.8499 7.87113 49.8909 7.83084C49.9317 7.79047 49.9866 7.76731 50.044 7.76621H52.0352C52.0928 7.76716 52.1478 7.79018 52.1889 7.83054C52.23 7.87091 52.2539 7.92554 52.2558 7.98312V9.69856H52.2992C52.5025 9.04694 52.9012 8.47356 53.4411 8.05591C54.0055 7.65782 54.6847 7.45532 55.3749 7.47944H55.4771V9.88606H55.4624V9.88532ZM61.0124 9.80003C60.9553 9.80098 60.9008 9.82371 60.86 9.86371C60.8192 9.90363 60.7953 9.95768 60.7933 10.0147V13.6339C60.7661 13.9169 60.844 14.1993 61.0124 14.428C61.1595 14.5853 61.408 14.6574 61.7742 14.6574H61.9793C62.0367 14.6587 62.0913 14.6819 62.1321 14.7222C62.1728 14.7626 62.1966 14.817 62.1984 14.8743V16.6905C62.1966 16.7477 62.1728 16.8019 62.132 16.842C62.0912 16.8822 62.0365 16.905 61.9793 16.9059H61.1161C60.222 16.9059 59.5345 16.675 59.0514 16.228C58.5676 15.7677 58.3337 15.1037 58.3337 14.1964V10.0147C58.3317 9.95746 58.3076 9.90319 58.2665 9.86319C58.2254 9.82319 58.1705 9.80054 58.1131 9.80003H56.8396C56.7822 9.79878 56.7274 9.77547 56.6867 9.73495C56.6459 9.69444 56.6222 9.63981 56.6205 9.58238V7.98312C56.6222 7.92576 56.6459 7.87121 56.6867 7.83084C56.7275 7.79047 56.7823 7.76731 56.8396 7.76621H58.1139C58.1712 7.76547 58.2261 7.74268 58.267 7.7026C58.308 7.66246 58.3319 7.60812 58.3337 7.55076V4.32063C58.3356 4.26334 58.3595 4.20897 58.4005 4.16884C58.4414 4.12871 58.4963 4.10592 58.5536 4.10519H60.5889C60.6462 4.10592 60.7011 4.12871 60.742 4.16884C60.783 4.20897 60.8069 4.26334 60.8087 4.32063V7.55076C60.8106 7.60812 60.8345 7.66246 60.8755 7.7026C60.9164 7.74268 60.9713 7.76547 61.0286 7.76621H62.4926C62.5501 7.76731 62.6049 7.79047 62.6458 7.83084C62.6867 7.87113 62.7106 7.92569 62.7124 7.98312V9.58238C62.7107 9.63995 62.687 9.69466 62.646 9.73518C62.6051 9.77569 62.5502 9.79893 62.4926 9.80003H61.0124ZM70.3117 14.1824C70.5459 13.9347 70.7275 13.6422 70.8458 13.3225C70.964 13.0028 71.0164 12.6625 70.9999 12.3221C71.013 11.982 70.9589 11.6427 70.8409 11.3235C70.7228 11.0043 70.543 10.7115 70.3117 10.4618C69.8159 10.0079 69.1681 9.75613 68.4959 9.75613C67.8237 9.75613 67.1759 10.0079 66.6801 10.4618C66.4459 10.7095 66.2642 11.002 66.146 11.3216C66.0278 11.6414 65.9753 11.9816 65.9918 12.3221C65.9788 12.6622 66.0328 13.0015 66.1509 13.3207C66.269 13.6399 66.4488 13.9327 66.6801 14.1824C66.9177 14.419 67.2017 14.6039 67.5143 14.7253C67.8269 14.8468 68.1612 14.9023 68.4962 14.8883C68.8318 14.9069 69.1675 14.8536 69.4807 14.7319C69.794 14.6102 70.0775 14.4228 70.3124 14.1824H70.3117ZM65.6249 16.6191C64.9373 16.2293 64.3778 15.6478 64.0146 14.9456C63.6289 14.1247 63.4288 13.2288 63.4288 12.3217C63.4288 11.4147 63.6289 10.5188 64.0146 9.69782C64.3822 8.999 64.9406 8.41893 65.6249 8.02503C66.3126 7.63804 67.0903 7.43922 67.8793 7.44856C68.5245 7.43275 69.1636 7.57672 69.7396 7.86768C70.2488 8.13731 70.6743 8.54143 70.9698 9.03606H71.0139V7.96694C71.0159 7.90981 71.0398 7.85569 71.0806 7.81562C71.1213 7.77554 71.1759 7.7526 71.233 7.7515H73.2396C73.2969 7.75245 73.3517 7.77525 73.3925 7.8154C73.4334 7.85547 73.4574 7.90973 73.4595 7.96694V16.6743C73.4578 16.732 73.4339 16.7868 73.3928 16.8274C73.3517 16.8679 73.2966 16.8911 73.2389 16.8919H71.2345C71.1769 16.8908 71.122 16.8676 71.081 16.8271C71.0401 16.7866 71.0163 16.7319 71.0146 16.6743V15.6081H70.9705C70.6751 16.1033 70.2493 16.5077 69.7396 16.7772C69.1632 17.0671 68.5244 17.2108 67.8793 17.1956C67.0903 17.205 66.3126 17.0062 65.6249 16.6191ZM81.822 14.1824C82.0559 13.9347 82.2375 13.6422 82.3559 13.3225C82.4742 13.0028 82.5264 12.6625 82.5103 12.3221C82.5235 11.982 82.4691 11.6427 82.3514 11.3235C82.2331 11.0043 82.0529 10.7115 81.822 10.4618C81.3264 10.0077 80.6779 9.75576 80.0059 9.75576C79.3338 9.75576 78.6853 10.0077 78.1897 10.4618C77.9559 10.7097 77.7742 11.0022 77.6559 11.3218C77.5382 11.6415 77.4853 11.9817 77.5022 12.3221C77.4889 12.6622 77.5434 13.0015 77.661 13.3207C77.7794 13.6399 77.9588 13.9327 78.1904 14.1824C78.4279 14.419 78.7117 14.6039 79.025 14.7253C79.3375 14.8468 79.6713 14.9023 80.0066 14.8883C80.3419 14.9069 80.6779 14.8535 80.9912 14.7318C81.3044 14.61 81.5875 14.4227 81.8228 14.1824H81.822ZM78.7764 16.7765C78.2669 16.5068 77.8412 16.1024 77.5456 15.6074H77.5014V16.675C77.4992 16.7324 77.4757 16.7868 77.4353 16.8272C77.3941 16.8675 77.3397 16.8907 77.2823 16.8919H75.2463C75.1889 16.8907 75.1345 16.8675 75.0934 16.8272C75.0529 16.7868 75.0287 16.7324 75.0272 16.675V3.26769C75.0287 3.21045 75.0529 3.15611 75.0934 3.11588C75.1345 3.07565 75.1889 3.05262 75.2463 3.05151H77.2823C77.3397 3.05242 77.3941 3.07528 77.4353 3.11537C77.4764 3.15545 77.5 3.20972 77.5022 3.26695V9.04929H77.5463C77.8419 8.55488 78.2676 8.15062 78.7764 7.88018C79.3529 7.59047 79.9912 7.44679 80.636 7.46179C81.425 7.45231 82.2029 7.65194 82.8904 8.04047C83.5779 8.42959 84.1375 9.01032 84.5007 9.71179C84.9125 10.5235 85.1139 11.4255 85.0875 12.3353C85.1059 13.2445 84.9051 14.1447 84.5014 14.9596C84.1338 15.6589 83.575 16.239 82.8912 16.6324C82.2029 17.0194 81.425 17.2183 80.636 17.2089C79.9904 17.2141 79.3522 17.0655 78.7757 16.775L78.7764 16.7765ZM88.5147 16.8934H86.4801C86.4228 16.8925 86.3676 16.8694 86.3264 16.8288C86.2853 16.7882 86.2617 16.7334 86.2603 16.6758V3.26843C86.2625 3.21093 86.286 3.15638 86.3272 3.11612C86.3684 3.07585 86.4235 3.05298 86.4809 3.05225H88.5154C88.5728 3.05352 88.6272 3.07651 88.6676 3.11654C88.7081 3.15658 88.7323 3.21064 88.7345 3.26769V16.675C88.7353 16.7173 88.7235 16.7588 88.7007 16.7943C88.6779 16.8298 88.6448 16.8577 88.6059 16.8743C88.5772 16.8867 88.5463 16.8927 88.5154 16.8919V16.8934H88.5147ZM93.3037 9.87209C92.9492 10.155 92.7059 10.5531 92.6154 10.9971C92.6088 11.0291 92.6103 11.0622 92.6184 11.0939C92.6264 11.1255 92.6419 11.1549 92.6632 11.1798C92.6838 11.2047 92.7103 11.2246 92.7404 11.2379C92.7698 11.2512 92.8029 11.2576 92.8353 11.2566H96.7014C96.7323 11.2568 96.7632 11.2502 96.7919 11.2376C96.8206 11.225 96.8456 11.2064 96.8661 11.1832C96.8875 11.16 96.9029 11.1327 96.9125 11.103C96.922 11.0733 96.925 11.042 96.9213 11.0111C96.8625 10.5801 96.6485 10.1853 96.3198 9.90076C95.8963 9.564 95.3669 9.38973 94.8264 9.40959C94.2823 9.39488 93.7478 9.55665 93.3037 9.87135L93.3029 9.87209H93.3037ZM98.2537 8.74782C99.0441 9.59709 99.4397 10.7978 99.4389 12.3508V12.6118C99.4367 12.6691 99.4132 12.7233 99.372 12.7634C99.3309 12.8035 99.2764 12.8264 99.2191 12.8272H92.7625C92.7301 12.8279 92.6985 12.8353 92.6698 12.8491C92.6404 12.8628 92.6147 12.8826 92.5941 12.907C92.5728 12.9315 92.5573 12.9601 92.5485 12.991C92.5397 13.0219 92.5375 13.0542 92.5419 13.0861C92.6257 13.6261 92.9014 14.1177 93.3191 14.4706C93.8316 14.8716 94.4706 15.0758 95.1206 15.0464C96.0912 15.0328 97.0198 14.6457 97.7125 13.9655C97.7353 13.9446 97.7625 13.929 97.7919 13.9198C97.822 13.9106 97.8529 13.908 97.8838 13.9122C97.9147 13.9164 97.9441 13.9273 97.9698 13.9441C97.9963 13.961 98.0184 13.9833 98.0345 14.0096L99.0154 15.4074C99.0434 15.452 99.0559 15.5046 99.05 15.5569C99.0448 15.6092 99.022 15.6583 98.986 15.6964C98.4992 16.1114 97.9632 16.465 97.3904 16.7493C96.6764 17.0676 95.9014 17.225 95.1198 17.2103C94.2044 17.2311 93.2978 17.0226 92.4838 16.6037C91.75 16.2182 91.1441 15.6272 90.7412 14.903C90.3147 14.1264 90.0978 13.2521 90.1117 12.3662C90.0956 11.4789 90.3022 10.6016 90.7125 9.81473C91.097 9.0929 91.6816 8.49738 92.3963 8.10003C93.1728 7.67657 94.0456 7.46268 94.9301 7.47944C96.3647 7.46253 97.4632 7.89562 98.2537 8.74709V8.74782ZM48.3153 4.53901C48.3195 4.83445 48.2361 5.12449 48.0754 5.37248C47.9148 5.62046 47.6842 5.81525 47.4129 5.93222C47.1416 6.04919 46.8417 6.08309 46.5511 6.02964C46.2605 5.97618 45.9923 5.83777 45.7803 5.6319C45.5684 5.42603 45.4223 5.16194 45.3604 4.87303C45.2985 4.58412 45.3237 4.28334 45.4328 4.00874C45.5418 3.73413 45.7298 3.49803 45.9731 3.33026C46.2163 3.1625 46.5038 3.07062 46.7992 3.06622H46.8065C47.2007 3.0644 47.5798 3.21755 47.862 3.49265C48.1442 3.76775 48.3071 4.14276 48.3153 4.53681V4.53828V4.53901Z" fill="#181D26"/>
<path d="M11.6359 0.261562L2.39781 4.08413C1.88422 4.29688 1.8894 5.02658 2.40649 5.23149L11.6832 8.91022C12.4982 9.23346 13.4059 9.23346 14.221 8.91022L23.4978 5.23149C24.0146 5.02658 24.0201 4.29688 23.5062 4.08427L14.2683 0.261562C13.4255 -0.0871873 12.4787 -0.0871873 11.6359 0.261562Z" fill="#FCB400"/>
<path d="M13.7812 10.9188V20.109C13.7812 20.5459 14.222 20.8454 14.6283 20.6843L24.9654 16.6719C25.0807 16.6263 25.1796 16.547 25.2492 16.4444C25.3189 16.3418 25.3561 16.2206 25.3561 16.0966V6.90663C25.3561 6.46952 24.9154 6.17021 24.509 6.33128L14.172 10.3436C14.0567 10.3894 13.9579 10.4686 13.8882 10.5713C13.8185 10.6738 13.7812 10.795 13.7812 10.919" fill="#18BFFF"/>
<path d="M11.3678 11.393L8.30004 12.8743L7.98857 13.0248L1.51259 16.1278C1.10222 16.3258 0.578125 16.0267 0.578125 15.5707V6.94509C0.578125 6.7801 0.66272 6.63766 0.776166 6.53052C0.822703 6.48418 0.875504 6.44457 0.933026 6.41287C1.08765 6.32001 1.30838 6.29523 1.49606 6.36945L11.3163 10.2605C11.8155 10.4585 11.8547 11.158 11.3678 11.3932" fill="#F82B60"/>
<path d="M11.3651 11.393L8.29728 12.8743L0.773438 6.53038C0.819989 6.48409 0.87279 6.44453 0.930305 6.41287C1.08492 6.32001 1.30566 6.29523 1.49333 6.36945L11.3136 10.2605C11.8127 10.4585 11.8519 11.158 11.3651 11.3932" fill="black" fill-opacity="0.25"/>
</g>
<defs>
<clipPath id="clip0_1_3594">
<rect width="100" height="21.3235" fill="white"/>
</clipPath>
</defs>
</svg>

<svg xmlns="http://www.w3.org/2000/svg" width="290.909" height="64" fill="none" viewBox="0 0 100 22"><g clip-path="url(#a)"><path fill="#181D26" d="m39.807 11.17-1.728-4.6a.22.22 0 0 0-.41 0l-1.728 4.6a.214.214 0 0 0 .205.287h3.47a.204.204 0 0 0 .191-.287Zm.805 2.58h-5.476a.22.22 0 0 0-.205.143l-1.084 2.87a.22.22 0 0 1-.204.143h-2.375a.218.218 0 0 1-.204-.303l5.462-13.407a.209.209 0 0 1 .205-.13h2.27a.23.23 0 0 1 .206.13l5.46 13.407a.22.22 0 0 1-.205.304h-2.37a.22.22 0 0 1-.205-.145l-1.084-2.869a.188.188 0 0 0-.19-.144v.001Zm5.184-5.984h2.036a.224.224 0 0 1 .22.217v8.708a.222.222 0 0 1-.22.216h-2.035a.223.223 0 0 1-.22-.216V7.983a.215.215 0 0 1 .22-.217Zm9.666 2.12a.224.224 0 0 1-.22.217h-.058c-1.01 0-1.743.23-2.211.706-.469.476-.703 1.254-.703 2.348v3.519a.224.224 0 0 1-.22.217h-2.007a.224.224 0 0 1-.219-.217V7.983a.224.224 0 0 1 .22-.217h1.991a.225.225 0 0 1 .22.217V9.7h.044a3.331 3.331 0 0 1 1.142-1.643 3.164 3.164 0 0 1 1.934-.577h.102v2.407h-.015Zm5.55-.086a.223.223 0 0 0-.219.215v3.619c-.027.283.051.565.22.794.147.157.395.23.761.23h.205a.225.225 0 0 1 .22.216v1.816a.222.222 0 0 1-.22.216h-.863c-.894 0-1.581-.231-2.065-.678-.483-.46-.717-1.124-.717-2.032v-4.181a.222.222 0 0 0-.22-.215H56.84a.224.224 0 0 1-.22-.218V7.983a.224.224 0 0 1 .22-.217h1.274a.223.223 0 0 0 .22-.215V4.32a.223.223 0 0 1 .22-.216h2.035a.223.223 0 0 1 .22.216v3.23a.223.223 0 0 0 .22.215h1.464a.224.224 0 0 1 .22.217v1.6a.224.224 0 0 1-.22.217h-1.48Zm9.3 4.382a2.529 2.529 0 0 0 .688-1.86 2.592 2.592 0 0 0-.688-1.86 2.69 2.69 0 0 0-3.632 0 2.528 2.528 0 0 0-.688 1.86 2.592 2.592 0 0 0 .688 1.86 2.428 2.428 0 0 0 1.816.706 2.358 2.358 0 0 0 1.816-.706Zm-4.687 2.437a4.077 4.077 0 0 1-1.61-1.673 6.17 6.17 0 0 1 0-5.248 4.17 4.17 0 0 1 1.61-1.673 4.489 4.489 0 0 1 2.254-.576 3.913 3.913 0 0 1 1.86.419c.51.27.935.673 1.23 1.168h.045v-1.07a.223.223 0 0 1 .219-.215h2.007a.223.223 0 0 1 .22.216v8.707a.224.224 0 0 1-.221.218h-2.005a.224.224 0 0 1-.22-.218v-1.066h-.043c-.296.495-.722.9-1.231 1.17a3.934 3.934 0 0 1-1.86.418 4.487 4.487 0 0 1-2.255-.577Zm16.197-2.437a2.535 2.535 0 0 0 .688-1.86 2.596 2.596 0 0 0-.688-1.86 2.69 2.69 0 0 0-3.632 0 2.538 2.538 0 0 0-.688 1.86 2.596 2.596 0 0 0 .688 1.86 2.422 2.422 0 0 0 1.817.706 2.36 2.36 0 0 0 1.816-.706h-.001Zm-3.046 2.594a3.15 3.15 0 0 1-1.23-1.169H77.5v1.068a.225.225 0 0 1-.22.217h-2.035a.225.225 0 0 1-.219-.217V3.268a.223.223 0 0 1 .22-.216h2.035a.224.224 0 0 1 .22.215v5.782h.044a3.163 3.163 0 0 1 1.23-1.169 3.937 3.937 0 0 1 1.86-.418c.789-.01 1.567.19 2.254.578.688.39 1.248.97 1.61 1.672.412.812.614 1.713.588 2.623.018.91-.183 1.81-.587 2.625-.367.699-.926 1.279-1.61 1.672a4.493 4.493 0 0 1-2.255.577 4.062 4.062 0 0 1-1.86-.434v.002Zm9.739.117H86.48a.224.224 0 0 1-.22-.217V3.268a.224.224 0 0 1 .22-.216h2.035a.223.223 0 0 1 .22.216v13.407a.213.213 0 0 1-.22.217v.001Zm4.789-7.02a1.933 1.933 0 0 0-.689 1.124.215.215 0 0 0 .048.183.216.216 0 0 0 .172.077h3.866a.222.222 0 0 0 .212-.154.217.217 0 0 0 .008-.092 1.789 1.789 0 0 0-.601-1.11 2.265 2.265 0 0 0-1.494-.491 2.516 2.516 0 0 0-1.522.461l-.001.001Zm4.95-1.125c.79.85 1.186 2.05 1.185 3.603v.26a.223.223 0 0 1-.22.216h-6.456a.225.225 0 0 0-.169.08.22.22 0 0 0-.052.18c.084.54.36 1.03.777 1.384a2.724 2.724 0 0 0 1.802.575c.97-.013 1.899-.4 2.592-1.08a.21.21 0 0 1 .322.044l.98 1.397a.238.238 0 0 1-.03.289 7.815 7.815 0 0 1-1.595 1.053 5.33 5.33 0 0 1-2.27.461 5.49 5.49 0 0 1-2.636-.606 4.263 4.263 0 0 1-1.743-1.701 5.104 5.104 0 0 1-.63-2.537 5.31 5.31 0 0 1 .602-2.551A4.245 4.245 0 0 1 92.396 8.1a5.09 5.09 0 0 1 2.534-.62c1.435-.017 2.533.416 3.324 1.267ZM48.315 4.539A1.493 1.493 0 1 1 46.8 3.066h.008a1.502 1.502 0 0 1 1.508 1.47v.003Z"/><path fill="#FCB400" d="M11.636.262 2.398 4.084a.619.619 0 0 0 .008 1.147l9.277 3.68a3.442 3.442 0 0 0 2.538 0l9.277-3.68a.619.619 0 0 0 .008-1.147L14.268.262a3.442 3.442 0 0 0-2.632 0Z"/><path fill="#18BFFF" d="M13.781 10.919v9.19c0 .437.441.736.847.575l10.337-4.012a.617.617 0 0 0 .391-.575v-9.19a.619.619 0 0 0-.847-.576l-10.337 4.013a.619.619 0 0 0-.39.575"/><path fill="#F82B60" d="M11.368 11.393 8.3 12.874l-.311.15-6.476 3.104c-.41.198-.935-.101-.935-.557V6.945c0-.165.085-.307.198-.414a.704.704 0 0 1 .157-.118.66.66 0 0 1 .563-.044l9.82 3.892c.5.198.539.897.052 1.132"/><path fill="#000" fill-opacity=".25" d="m11.365 11.393-3.068 1.481L.773 6.53a.704.704 0 0 1 .157-.117.66.66 0 0 1 .563-.044l9.82 3.892c.5.198.539.897.052 1.132"/></g><defs><clipPath id="a"><path fill="#fff" d="M0 0h100v21.323H0z"/></clipPath></defs></svg>
